X: 32318
T: Piggot Family Schottische, The
R: barndance
M: 4/4
K: Gmajor
|:d>c|B2 d2 g2 b2|b>a (3^gab a2 e2|f>e (3def e2 F>A|e>d^c>e d>AB>=c|
d2 g2 b2- b>c'|b>a^g>b a4|f>ed>B c>FB>D|G>d (3Bcd G2:|
K: Dmaj
|:F>G|A>^GA>d f2 f2|A2 A>d f>^e f2|e2 e>d c2 (3Bcd|c>BA>B A>G (3EFG|
A>^GA>d f>^e f2|A>BA>d f4|e2 e>d c>Ad>B|c>A (3GFE D2:|

